X: 715
T: THE EAVES DROPPER
M:6/8
L:1/8
B:O'NEILL'S 715
Z:Transcribed by A. LEE WORMAN
K:G
D|GBB BAG|Bdd dBG|cee dBG|BAA A2 B|
GBB BAG|Bdd dBG|cee dBA|BGG G2:|
||d|gfg afd|efg d2 B|cee dBG|BAA Adf|
gab afd|efg dBG|cee dBA|BGG G2:|


